X: 11087
T: Duck, The
R: jig
M: 6/8
K: Edorian
|:BEE EFA|B2 B BcA|BEE EB,C|DBA FGA|
BEE EFA|edc B2 A|AFD DA,B,|DAF EFA:|
|:eaf e2 d|efe edB|eaf edB|BAF ABd|
[1 eaf eaf|efe e2 a|fdB BAB|d (3AAA ABd:|
[2 eaf efe|fba ~f2 c|dfe ~d2 A|FBA FGA||

